X: 10109
T: Difyrrwch Gwyr Dyfi
R: jig
M: 6/8
K: Gmajor
|:ede gfe|ded B2B|ede gfe|dBB B2 B/c/|
ded dcB|cAA A2 G/F/|GAB cAB|GEE E2 e/f/:|

